X:1
T:BWV 0775
T:Invention 4    (A = 415 Hz)
T:Joahnn Sebastian Bach
%%score { 1 | 2 }
L:1/8
Q:1/4=103
M:3/8
K:F
V:1 treble 
V:2 bass 
V:1
 D/E/F/G/A/B/ | ^C/B/A/G/F/E/ | FAd | G^ce | d/e/f/g/a/b/ | ^c/b/a/g/f/e/ | f/d/e/f/g/a/ | %7
 B/a/g/f/e/d/ | e/c/d/e/f/g/ | A/g/f/e/d/c/ | d/e/f/d/e/f/ | G z2 | c/d/e/c/d/e/ | F z B- | %14
 BB/4A/4B/4A/4G | c/B/A/G/F/E/ | F/G/A/4G/4A/4G/4A/4G/4F/ | Fcc | %18
 d/4c/4d/4c/4d/4c/4d/4c/4d/4c/4d/4c/4 | d/4c/4d/4c/4d/4c/4d/4c/4d/4c/4d/4c/4 | %20
 d/4c/4d/4c/4d/4c/4d/4c/4d/4c/4d/4c/4- | c/B/A/G/F/E/ | c/D/E/^F/G/A/ | B/A/G/F/E/D/ | %24
 B/C/D/E/F/G/ | A/=B/c/d/e/f/ | ^G/f/e/d/c/=B/ | c/=B/d/c/B/A/ | ^G/A/G/^F/E/D/ | C/D/E/^F/^G/A/ | %30
 D/c/=B/A/^G/^F/ | E/^F/^G/A/=B/c/ | ^F/e/d/c/=B/A/ | ^G/A/=B/c/d/e/ | A/f/e/d/c/=B/ | %35
 a/^g/^f/e/a- | a/d/c/4=B/4c/4B/4c/4B/4A/- | A>AB/c/ | D^FA | B/G/A/B/c/d/ | E/d/c/B/A/G/ | %41
 Af/e/f | Ge z | d/e/f/g/a/b/ | ^c/b/a/g/f/e/ | fdG- | G/d/^c/e/A/c/ | d/=B/d/4^c/4d/4c/4d/4c/4d/ | %48
 d/c/B/A/G/F/ | B/^C/D/E/F/G/ | A/d/FE/D/ | D3 |] %52
V:2
 z3 | z3 | D,/E,/F,/G,/A,/B,/ | ^C,/B,/A,/G,/F,/E,/ | F,A,D | E,G,^C | D,DF, | G,A,B, | C,CE, | %9
 F,G,A, | B,/G,/A,/B,/C/D/ | E,/D/C/B,/A,/G,/ | A,/F,/G,/A,/B,/C/ | D,/C/B,/A,/G,/F,/ | %14
 E,/C,/D,/E,/F,/G,/ | A,,/G,/F,/E,/D,/B,,/ | D,/B,,/C,C,, | F,,/G,,/A,,/B,,/C,/D,/ | %18
 E,,/D,/C,/B,,/A,,/G,,/ | A,,/B,,/C,/D,/E,/F,/ | G,,/F,/E,/D,/C,/B,,/ | A,,/B,,/C,/A,,/B,,/C,/ | %22
 ^F,, z2 | G,,/A,,/B,,/A,,/A,,/B,,/ | E,, z2 | F,,F,D, | =B,,^G,,E,, | A,,/^G,,/A,,/=B,,/C,/D,/ | %28
 F,/4E,/4F,/4E,/4F,/4E,/4F,/4E,/4F,/4E,/4F,/4E,/4 | %29
 F,/4E,/4F,/4E,/4F,/4E,/4F,/4E,/4F,/4E,/4F,/4E,/4 | %30
 F,/4E,/4F,/4E,/4F,/4E,/4F,/4E,/4F,/4E,/4F,/4E,/4 | %31
 F,/4E,/4F,/4E,/4F,/4E,/4F,/4E,/4F,/4E,/4F,/4E,/4 | %32
 F,/4E,/4F,/4E,/4F,/4E,/4F,/4E,/4F,/4E,/4F,/4E,/4- | E,ED | C=B,A, | DEF | DEE, | %37
 A,/A,,/B,,/C,/D,/_E,/ | ^F,,/_E,/D,/C,/B,,/A,,/ | G,,>G,,A,,/B,,/ | C,,G,,C, | %41
 F,/G,/A,/=B,/^C/D/ | C,/D/^C/=B,/A,/G,/ | F,A,D | E,G,^C | D,/E,/F,/G,/A,/B,/ | %46
 ^C,/B,/A,/G,/F,/E,/ | F,/G,/A,G,, | B,,>C,B,,/A,,/ | G,,/B,/A,/G,/F,/E,/ | F,/G,/A,A,, | D,,3 |] %52

